X: 14
T: Bobbing Joe
K:C
M:6/8
A2 e e2 d|e>fg d>c B|A2 B c>dB|Ae2 A3|A2 e e2 d|e>fg d>c B|A2 B c>dB|Ae2 A3:|
|: B d2 G3|B d2 G3|A2 B c>BA| c>de A3|B d2 G3|B d2 G3|A2 B c>BA| c>de A3:|

